assets/images/strapi.svg

<svg width="24" height="24" viewBox="0 0 24 24" fill="none" xmlns="http://www.w3.org/2000/svg">
<g clip-path="url(#clip0_3300_12020)">
<path d="M7.68275 0V8.035H15.4578C15.7378 8.035 15.9598 8.271 15.9598 8.518V16.32H23.9848V0.502C23.9848 0.368861 23.9319 0.241176 23.8377 0.147032C23.7436 0.0528891 23.6159 0 23.4828 0L7.68275 0ZM7.18275 0.5L0.0847526 7.607C0.0497843 7.64216 0.0260138 7.68689 0.0164407 7.73554C0.00686752 7.7842 0.0119207 7.8346 0.0309625 7.88038C0.0500044 7.92617 0.0821816 7.96529 0.123434 7.99281C0.164686 8.02032 0.213165 8.03501 0.262753 8.035H7.18275V0.5ZM7.68275 8.535V15.818C7.68275 16.096 7.90675 16.32 8.18475 16.32H15.4598V9.018C15.4598 8.74 15.2358 8.536 14.9578 8.535H7.68275ZM15.9598 16.82V23.748C15.9598 23.972 16.2308 24.084 16.3898 23.926L23.4848 16.82H15.9598Z" fill="#626262"/>
</g>
<defs>
<clipPath id="clip0_3300_12020">
<rect width="24" height="24" fill="white"/>
</clipPath>
</defs>
</svg>

<svg width="24" height="24" viewBox="0 0 24 24" fill="none" xmlns="http://www.w3.org/2000/svg"><g clip-path="url(#a)"><path d="M7.683 0v8.035h7.775c.28 0 .502.236.502.483v7.802h8.025V.502A.502.502 0 0 0 23.483 0h-15.8Zm-.5.5L.085 7.607a.251.251 0 0 0 .178.428h6.92V.5Zm.5 8.035v7.283c0 .278.224.502.502.502h7.275V9.018c0-.278-.224-.482-.502-.483H7.683Zm8.277 8.285v6.928c0 .224.27.336.43.178l7.095-7.106H15.96Z" fill="#626262"/></g><defs><clipPath id="a"><path fill="#fff" d="M0 0h24v24H0z"/></clipPath></defs></svg>
